!!!OTL: VERGANGEN IST DER LICHTE TAG
!!!ARE: Europa, Mitteleuropa, Deutschland
!!!SCT: B0245
!!!YEM: Copyright 1995, estate of Helmut Schaffrath.
**kern
*ICvox
*Ivox
*M6/8
*k[c-e-a-]
*c:
{8g
=1
4c
8d
4e-
8f
=2
4g
8g
4g}
{8g
=3
4a-
8g
8f
8e-
8f
=4
4g
8f
4e-}
{8e-
=5
4g
8g
4cc
8b-
=6
4b-
8g
4e-}
{8e-
=7
8a-
8g
8f
4g
8e-
=8
8d
8e-
8d
4c}
==
!!!AGN: Tageszeiten - Lied, Nacht
!!!ONB: ESAC (Essen Associative Code) Database: BOEHME
!!!AMT: compound duple
!!!AIN: vox
!!!EED: Helmut Schaffrath
!!!EEV: 1.0
*-
